base (1)-svg.CUBE
#Created by www.Photopea.com
TITLE "base (1)-svg.psd"
#LUT size
LUT_3D_SIZE 16
#data domain
DOMAIN_MIN 0.0 0.0 0.0
DOMAIN_MAX 1.0 1.0 1.0
#LUT data points
0.137255 0.011765 0.152941
0.137255 0.011765 0.152941
0.137255 0.011765 0.152941
0.137255 0.011765 0.152941
0.137255 0.011765 0.152941
0.137255 0.011765 0.152941
0.137255 0.011765 0.152941
0.137255 0.011765 0.152941
0.137255 0.011765 0.152941
0.137255 0.011765 0.152941
0.137255 0.011765 0.152941
0.137255 0.011765 0.152941
0.137255 0.011765 0.152941
0.137255 0.011765 0.152941
0.137255 0.011765 0.152941
0.137255 0.011765 0.152941
0.137255 0.011765 0.152941
0.137255 0.011765 0.152941
0.137255 0.011765 0.152941
0.137255 0.011765 0.152941
0.137255 0.011765 0.152941
0.137255 0.011765 0.152941
0.137255 0.011765 0.152941
0.137255 0.011765 0.152941
0.137255 0.011765 0.152941
0.137255 0.011765 0.152941
0.137255 0.011765 0.152941
0.137255 0.011765 0.152941
0.137255 0.011765 0.152941
0.137255 0.011765 0.152941
0.137255 0.011765 0.152941
0.137255 0.011765 0.152941
0.137255 0.011765 0.152941
0.137255 0.011765 0.152941
0.137255 0.011765 0.152941
0.137255 0.011765 0.152941
0.137255 0.011765 0.152941
0.137255 0.011765 0.152941
0.137255 0.011765 0.152941
0.137255 0.011765 0.152941
0.137255 0.011765 0.152941
0.137255 0.011765 0.152941
0.137255 0.011765 0.152941
0.137255 0.011765 0.152941
0.137255 0.011765 0.152941
0.137255 0.011765 0.152941
0.137255 0.011765 0.152941
0.137255 0.011765 0.152941
0.137255 0.011765 0.152941
0.137255 0.011765 0.152941
0.137255 0.011765 0.152941
0.137255 0.011765 0.152941
0.137255 0.011765 0.152941
0.137255 0.011765 0.152941
0.137255 0.011765 0.152941
0.137255 0.011765 0.152941
0.137255 0.011765 0.152941
0.137255 0.011765 0.152941
0.137255 0.011765 0.152941
0.137255 0.011765 0.152941
0.137255 0.011765 0.152941
0.137255 0.011765 0.152941
0.137255 0.011765 0.152941
0.137255 0.011765 0.152941
0.137255 0.011765 0.152941
0.137255 0.011765 0.152941
0.137255 0.011765 0.152941
0.137255 0.011765 0.152941
0.137255 0.011765 0.152941
0.137255 0.011765 0.152941
0.137255 0.011765 0.152941
0.137255 0.011765 0.152941
0.137255 0.011765 0.152941
0.137255 0.011765 0.152941
0.137255 0.011765 0.152941
0.137255 0.011765 0.152941
0.137255 0.011765 0.152941
0.137255 0.011765 0.152941
0.137255 0.011765 0.152941
0.137255 0.011765 0.152941
0.137255 0.011765 0.152941
0.137255 0.011765 0.152941
0.137255 0.011765 0.152941
0.137255 0.011765 0.152941
0.137255 0.011765 0.152941
0.137255 0.011765 0.152941
0.137255 0.011765 0.152941
0.137255 0.011765 0.152941
0.137255 0.011765 0.152941
0.137255 0.011765 0.152941
0.137255 0.011765 0.152941
0.137255 0.011765 0.152941
0.137255 0.011765 0.152941
0.137255 0.011765 0.152941
0.137255 0.011765 0.152941
0.137255 0.011765 0.152941
0.137255 0.011765 0.152941
0.137255 0.011765 0.152941
0.137255 0.011765 0.152941
0.137255 0.011765 0.152941
0.137255 0.011765 0.152941
0.137255 0.011765 0.152941
0.137255 0.011765 0.152941
0.137255 0.011765 0.152941
0.137255 0.011765 0.152941
0.137255 0.011765 0.152941
0.137255 0.011765 0.152941
0.137255 0.011765 0.152941
0.137255 0.011765 0.152941
0.137255 0.011765 0.152941
0.137255 0.011765 0.152941
0.137255 0.011765 0.152941
0.137255 0.011765 0.152941
0.137255 0.011765 0.152941
0.137255 0.011765 0.152941
0.137255 0.011765 0.152941
0.137255 0.011765 0.152941
0.137255 0.011765 0.152941
0.137255 0.011765 0.152941
0.137255 0.011765 0.152941
0.137255 0.011765 0.152941
0.137255 0.011765 0.152941
0.137255 0.011765 0.152941
0.137255 0.011765 0.152941
0.137255 0.011765 0.152941
0.137255 0.011765 0.152941
0.137255 0.011765 0.152941
0.137255 0.011765 0.152941
0.137255 0.011765 0.152941
0.137255 0.011765 0.152941
0.137255 0.011765 0.152941
0.137255 0.011765 0.152941
0.137255 0.011765 0.152941
0.137255 0.011765 0.152941
0.137255 0.011765 0.152941
0.137255 0.011765 0.152941
0.137255 0.011765 0.152941
0.137255 0.011765 0.152941
0.137255 0.011765 0.152941
0.137255 0.011765 0.152941
0.137255 0.011765 0.152941
0.137255 0.011765 0.152941
0.137255 0.011765 0.152941
0.137255 0.011765 0.152941
0.137255 0.011765 0.152941
0.137255 0.011765 0.152941
0.137255 0.011765 0.152941
0.137255 0.011765 0.152941
0.137255 0.011765 0.152941
0.137255 0.011765 0.152941
0.137255 0.011765 0.152941
0.137255 0.011765 0.152941
0.137255 0.011765 0.152941
0.137255 0.011765 0.152941
0.137255 0.011765 0.152941
0.137255 0.011765 0.152941
0.137255 0.011765 0.152941
0.137255 0.011765 0.152941
0.137255 0.011765 0.152941
0.137255 0.011765 0.152941
0.137255 0.011765 0.152941
0.137255 0.011765 0.152941
0.137255 0.011765 0.152941
0.137255 0.011765 0.152941
0.137255 0.011765 0.152941
0.137255 0.011765 0.152941
0.137255 0.011765 0.152941
0.137255 0.011765 0.152941
0.137255 0.011765 0.152941
0.137255 0.011765 0.152941
0.137255 0.011765 0.152941
0.137255 0.011765 0.152941
0.137255 0.011765 0.152941
0.137255 0.011765 0.152941
0.137255 0.011765 0.152941
0.137255 0.011765 0.152941
0.137255 0.011765 0.152941
0.137255 0.011765 0.152941
0.137255 0.011765 0.152941
0.137255 0.011765 0.152941
0.137255 0.011765 0.152941
0.137255 0.011765 0.152941
0.137255 0.011765 0.152941
0.137255 0.011765 0.152941
0.137255 0.011765 0.152941
0.137255 0.011765 0.152941
0.137255 0.011765 0.152941
0.137255 0.011765 0.152941
0.137255 0.011765 0.152941
0.137255 0.011765 0.152941
0.137255 0.011765 0.152941
0.137255 0.011765 0.152941
0.137255 0.011765 0.152941
0.137255 0.011765 0.152941
0.137255 0.011765 0.152941
0.137255 0.011765 0.152941
0.137255 0.011765 0.152941
0.137255 0.011765 0.152941
0.137255 0.011765 0.152941
0.137255 0.011765 0.152941
0.137255 0.011765 0.152941
0.137255 0.011765 0.152941
0.137255 0.011765 0.152941
0.137255 0.011765 0.152941
0.137255 0.011765 0.152941
0.137255 0.011765 0.152941
0.137255 0.011765 0.152941
0.137255 0.011765 0.152941
0.137255 0.011765 0.152941
0.137255 0.011765 0.152941
0.137255 0.011765 0.152941
0.137255 0.011765 0.152941
0.137255 0.011765 0.152941
0.137255 0.011765 0.152941
0.137255 0.011765 0.152941
0.137255 0.011765 0.152941
0.137255 0.011765 0.152941
0.137255 0.011765 0.152941
0.137255 0.011765 0.152941
0.137255 0.011765 0.152941
0.137255 0.011765 0.152941
0.137255 0.011765 0.152941
0.137255 0.011765 0.152941
0.137255 0.011765 0.152941
0.137255 0.011765 0.152941
0.137255 0.011765 0.152941
0.137255 0.011765 0.152941
0.137255 0.011765 0.152941
0.137255 0.011765 0.152941
0.137255 0.011765 0.152941
0.137255 0.011765 0.152941
0.137255 0.011765 0.152941
0.137255 0.011765 0.152941
0.137255 0.011765 0.152941
0.137255 0.011765 0.152941
0.137255 0.011765 0.152941
0.137255 0.011765 0.152941
0.137255 0.011765 0.152941
0.137255 0.011765 0.152941
0.137255 0.011765 0.152941
0.137255 0.011765 0.152941
0.137255 0.011765 0.152941
0.137255 0.011765 0.152941
0.137255 0.011765 0.152941
0.137255 0.011765 0.152941
0.137255 0.011765 0.152941
0.137255 0.011765 0.152941
0.137255 0.011765 0.152941
0.137255 0.011765 0.152941
0.137255 0.011765 0.152941
0.137255 0.011765 0.152941
0.137255 0.011765 0.152941
0.137255 0.011765 0.152941
0.137255 0.011765 0.152941
0.137255 0.011765 0.152941
0.137255 0.011765 0.152941
0.137255 0.011765 0.152941
0.137255 0.011765 0.152941
0.137255 0.011765 0.152941
0.137255 0.011765 0.152941
0.137255 0.011765 0.152941
0.137255 0.011765 0.152941
0.137255 0.011765 0.152941
0.137255 0.011765 0.152941
0.137255 0.011765 0.152941
0.137255 0.011765 0.152941
0.137255 0.011765 0.152941
0.137255 0.011765 0.152941
0.137255 0.011765 0.152941
0.137255 0.011765 0.152941
0.137255 0.011765 0.152941
0.137255 0.011765 0.152941
0.137255 0.011765 0.152941
0.137255 0.011765 0.152941
0.137255 0.011765 0.152941
0.137255 0.011765 0.152941
0.137255 0.011765 0.152941
0.137255 0.011765 0.152941
0.137255 0.011765 0.152941
0.137255 0.011765 0.152941
0.137255 0.011765 0.152941
0.137255 0.011765 0.152941
0.137255 0.011765 0.152941
0.137255 0.011765 0.152941
0.137255 0.011765 0.152941
0.137255 0.011765 0.152941
0.137255 0.011765 0.152941
0.137255 0.011765 0.152941
0.137255 0.011765 0.152941
0.137255 0.011765 0.152941
0.137255 0.011765 0.152941
0.137255 0.011765 0.152941
0.137255 0.011765 0.152941
0.137255 0.011765 0.152941
0.137255 0.011765 0.152941
0.137255 0.011765 0.152941
0.137255 0.011765 0.152941
0.137255 0.011765 0.152941
0.137255 0.011765 0.152941
0.137255 0.011765 0.152941
0.137255 0.011765 0.152941
0.137255 0.011765 0.152941
0.137255 0.011765 0.152941
0.137255 0.011765 0.152941
0.137255 0.011765 0.152941
0.137255 0.011765 0.152941
0.137255 0.011765 0.152941
0.137255 0.011765 0.152941
0.137255 0.011765 0.152941
0.137255 0.011765 0.152941
0.137255 0.011765 0.152941
0.137255 0.011765 0.152941
0.137255 0.011765 0.152941
0.137255 0.011765 0.152941
0.137255 0.011765 0.152941
0.137255 0.011765 0.152941
0.137255 0.011765 0.152941
0.137255 0.011765 0.152941
0.137255 0.011765 0.152941
0.137255 0.011765 0.152941
0.137255 0.011765 0.152941
0.137255 0.011765 0.152941
0.137255 0.011765 0.152941
0.137255 0.011765 0.152941
0.137255 0.011765 0.152941
0.137255 0.011765 0.152941
0.137255 0.011765 0.152941
0.137255 0.011765 0.152941
0.137255 0.011765 0.152941
0.137255 0.011765 0.152941
0.137255 0.011765 0.152941
0.137255 0.011765 0.152941
0.137255 0.011765 0.152941
0.137255 0.011765 0.152941
0.137255 0.011765 0.152941
0.137255 0.011765 0.152941
0.137255 0.011765 0.152941
0.137255 0.011765 0.152941
0.137255 0.011765 0.152941
0.137255 0.011765 0.152941
0.137255 0.011765 0.152941
0.137255 0.011765 0.152941
0.137255 0.011765 0.152941
0.137255 0.011765 0.152941
0.137255 0.011765 0.152941
0.137255 0.011765 0.152941
0.137255 0.011765 0.152941
0.137255 0.011765 0.152941
0.137255 0.011765 0.152941
0.137255 0.011765 0.152941
0.137255 0.011765 0.152941
0.137255 0.011765 0.152941
0.137255 0.011765 0.152941
0.137255 0.011765 0.152941
0.137255 0.011765 0.152941
0.137255 0.011765 0.152941
0.137255 0.011765 0.152941
0.137255 0.011765 0.152941
0.137255 0.011765 0.152941
0.137255 0.011765 0.152941
0.137255 0.011765 0.152941
0.137255 0.011765 0.152941
0.137255 0.011765 0.152941
0.137255 0.011765 0.152941
0.137255 0.011765 0.152941
0.137255 0.011765 0.152941
0.137255 0.011765 0.152941
0.137255 0.011765 0.152941
0.137255 0.011765 0.152941
0.137255 0.011765 0.152941
0.137255 0.011765 0.152941
0.137255 0.011765 0.152941
0.137255 0.011765 0.152941
0.137255 0.011765 0.152941
0.137255 0.011765 0.152941
0.137255 0.011765 0.152941
0.137255 0.011765 0.152941
0.137255 0.011765 0.152941
0.137255 0.011765 0.152941
0.137255 0.011765 0.152941
0.137255 0.011765 0.152941
0.137255 0.011765 0.152941
0.137255 0.011765 0.152941
0.137255 0.011765 0.152941
0.137255 0.011765 0.152941
0.137255 0.011765 0.152941
0.137255 0.011765 0.152941
0.137255 0.011765 0.152941
0.137255 0.011765 0.152941
0.137255 0.011765 0.152941
0.137255 0.011765 0.152941
0.137255 0.011765 0.152941
0.137255 0.011765 0.152941
0.137255 0.011765 0.152941
0.137255 0.011765 0.152941
0.137255 0.011765 0.152941
0.137255 0.011765 0.152941
0.137255 0.011765 0.152941
0.137255 0.011765 0.152941
0.137255 0.011765 0.152941
0.137255 0.011765 0.152941
0.137255 0.011765 0.152941
0.137255 0.011765 0.152941
0.137255 0.011765 0.152941
0.137255 0.011765 0.152941
0.137255 0.011765 0.152941
0.137255 0.011765 0.152941
0.137255 0.011765 0.152941
0.137255 0.011765 0.152941
0.137255 0.011765 0.152941
0.137255 0.011765 0.152941
0.137255 0.011765 0.152941
0.137255 0.011765 0.152941
0.137255 0.011765 0.152941
0.137255 0.011765 0.152941
0.137255 0.011765 0.152941
0.137255 0.011765 0.152941
0.137255 0.011765 0.152941
0.137255 0.011765 0.152941
0.137255 0.011765 0.152941
0.137255 0.011765 0.152941
0.137255 0.011765 0.152941
0.137255 0.011765 0.152941
0.137255 0.011765 0.152941
0.137255 0.011765 0.152941
0.137255 0.011765 0.152941
0.137255 0.011765 0.152941
0.137255 0.011765 0.152941
0.137255 0.011765 0.152941
0.137255 0.011765 0.152941
0.137255 0.011765 0.152941
0.137255 0.011765 0.152941
0.137255 0.011765 0.152941
0.137255 0.011765 0.152941
0.137255 0.011765 0.152941
0.137255 0.011765 0.152941
0.137255 0.011765 0.152941
0.137255 0.011765 0.152941
0.137255 0.011765 0.152941
0.137255 0.011765 0.152941
0.137255 0.011765 0.152941
0.137255 0.011765 0.152941
0.137255 0.011765 0.152941
0.137255 0.011765 0.152941
0.137255 0.011765 0.152941
0.137255 0.011765 0.152941
0.137255 0.011765 0.152941
0.137255 0.011765 0.152941
0.137255 0.011765 0.152941
0.137255 0.011765 0.152941
0.137255 0.011765 0.152941
0.137255 0.011765 0.152941
0.137255 0.011765 0.152941
0.137255 0.011765 0.152941
0.137255 0.011765 0.152941
0.137255 0.011765 0.152941
0.137255 0.011765 0.152941
0.137255 0.011765 0.152941
0.137255 0.011765 0.152941
0.137255 0.011765 0.152941
0.137255 0.011765 0.152941
0.137255 0.011765 0.152941
0.137255 0.011765 0.152941
0.137255 0.011765 0.152941
0.137255 0.011765 0.152941
0.137255 0.011765 0.152941
0.137255 0.011765 0.152941
0.137255 0.011765 0.152941
0.137255 0.011765 0.152941
0.137255 0.011765 0.152941
0.137255 0.011765 0.152941
0.137255 0.011765 0.152941
0.137255 0.011765 0.152941
0.137255 0.011765 0.152941
0.137255 0.011765 0.152941
0.137255 0.011765 0.152941
0.137255 0.011765 0.152941
0.137255 0.011765 0.152941
0.137255 0.011765 0.152941
0.137255 0.011765 0.152941
0.137255 0.011765 0.152941
0.137255 0.011765 0.152941
0.137255 0.011765 0.152941
0.137255 0.011765 0.152941
0.137255 0.011765 0.152941
0.137255 0.011765 0.152941
0.137255 0.011765 0.152941
0.137255 0.011765 0.152941
0.137255 0.011765 0.152941
0.137255 0.011765 0.152941
0.137255 0.011765 0.152941
0.137255 0.011765 0.152941
0.137255 0.011765 0.152941
0.137255 0.011765 0.152941
0.137255 0.011765 0.152941
0.137255 0.011765 0.152941
0.137255 0.011765 0.152941
0.137255 0.011765 0.152941
0.137255 0.011765 0.152941
0.137255 0.011765 0.152941
0.137255 0.011765 0.152941
0.137255 0.011765 0.152941
0.137255 0.011765 0.152941
0.137255 0.011765 0.152941
0.137255 0.011765 0.152941
0.137255 0.011765 0.152941
0.137255 0.011765 0.152941
0.137255 0.011765 0.152941
0.137255 0.011765 0.152941
0.137255 0.011765 0.152941
0.137255 0.011765 0.152941
0.137255 0.011765 0.152941
0.137255 0.011765 0.152941
0.137255 0.011765 0.152941
0.137255 0.011765 0.152941
0.137255 0.011765 0.152941
0.137255 0.011765 0.152941
0.137255 0.011765 0.152941
0.137255 0.011765 0.152941
0.137255 0.011765 0.152941
0.137255 0.011765 0.152941
0.137255 0.011765 0.152941
0.137255 0.011765 0.152941
0.137255 0.011765 0.152941
0.137255 0.011765 0.152941
0.137255 0.011765 0.152941
0.137255 0.011765 0.152941
0.137255 0.011765 0.152941
0.137255 0.011765 0.152941
0.137255 0.011765 0.152941
0.137255 0.011765 0.152941
0.137255 0.011765 0.152941
0.137255 0.011765 0.152941
0.137255 0.011765 0.152941
0.137255 0.011765 0.152941
0.137255 0.011765 0.152941
0.137255 0.011765 0.152941
0.137255 0.011765 0.152941
0.137255 0.011765 0.152941
0.137255 0.011765 0.152941
0.137255 0.011765 0.152941
0.137255 0.011765 0.152941
0.137255 0.011765 0.152941
0.137255 0.011765 0.152941
0.137255 0.011765 0.152941
0.137255 0.011765 0.152941
0.137255 0.011765 0.152941
0.137255 0.011765 0.152941
0.137255 0.011765 0.152941
0.137255 0.011765 0.152941
0.137255 0.011765 0.152941
0.137255 0.011765 0.152941
0.137255 0.011765 0.152941
0.137255 0.011765 0.152941
0.137255 0.011765 0.152941
0.137255 0.011765 0.152941
0.137255 0.011765 0.152941
0.137255 0.011765 0.152941
0.137255 0.011765 0.152941
0.137255 0.011765 0.152941
0.137255 0.011765 0.152941
0.137255 0.011765 0.152941
0.137255 0.011765 0.152941
0.137255 0.011765 0.152941
0.137255 0.011765 0.152941
0.137255 0.011765 0.152941
0.137255 0.011765 0.152941
0.137255 0.011765 0.152941
0.137255 0.011765 0.152941
0.137255 0.011765 0.152941
0.137255 0.011765 0.152941
0.137255 0.011765 0.152941
0.137255 0.011765 0.152941
0.137255 0.011765 0.152941
0.137255 0.011765 0.152941
0.137255 0.011765 0.152941
0.137255 0.011765 0.152941
0.137255 0.011765 0.152941
0.137255 0.011765 0.152941
0.137255 0.011765 0.152941
0.137255 0.011765 0.152941
0.137255 0.011765 0.152941
0.137255 0.011765 0.152941
0.137255 0.011765 0.152941
0.137255 0.011765 0.152941
0.137255 0.011765 0.152941
0.137255 0.011765 0.152941
0.137255 0.011765 0.152941
0.137255 0.011765 0.152941
0.137255 0.011765 0.152941
0.137255 0.011765 0.152941
0.137255 0.011765 0.152941
0.137255 0.011765 0.152941
0.137255 0.011765 0.152941
0.137255 0.011765 0.152941
0.137255 0.011765 0.152941
0.137255 0.011765 0.152941
0.137255 0.011765 0.152941
0.137255 0.011765 0.152941
0.137255 0.011765 0.152941
0.137255 0.011765 0.152941
0.137255 0.011765 0.152941
0.137255 0.011765 0.152941
0.137255 0.011765 0.152941
0.137255 0.011765 0.152941
0.137255 0.011765 0.152941
0.137255 0.011765 0.152941
0.137255 0.011765 0.152941
0.137255 0.011765 0.152941
0.137255 0.011765 0.152941
0.137255 0.011765 0.152941
0.137255 0.011765 0.152941
0.137255 0.011765 0.152941
0.137255 0.011765 0.152941
0.137255 0.011765 0.152941
0.137255 0.011765 0.152941
0.137255 0.011765 0.152941
0.137255 0.011765 0.152941
0.137255 0.011765 0.152941
0.137255 0.011765 0.152941
0.137255 0.011765 0.152941
0.137255 0.011765 0.152941
0.137255 0.011765 0.152941
0.137255 0.011765 0.152941
0.137255 0.011765 0.152941
0.137255 0.011765 0.152941
0.137255 0.011765 0.152941
0.137255 0.011765 0.152941
0.137255 0.011765 0.152941
0.137255 0.011765 0.152941
0.137255 0.011765 0.152941
0.137255 0.011765 0.152941
0.137255 0.011765 0.152941
0.137255 0.011765 0.152941
0.137255 0.011765 0.152941
0.137255 0.011765 0.152941
0.137255 0.011765 0.152941
0.137255 0.011765 0.152941
0.137255 0.011765 0.152941
0.137255 0.011765 0.152941
0.137255 0.011765 0.152941
0.137255 0.011765 0.152941
0.137255 0.011765 0.152941
0.137255 0.011765 0.152941
0.137255 0.011765 0.152941
0.137255 0.011765 0.152941
0.137255 0.011765 0.152941
0.137255 0.011765 0.152941
0.137255 0.011765 0.152941
0.137255 0.011765 0.152941
0.137255 0.011765 0.152941
0.137255 0.011765 0.152941
0.137255 0.011765 0.152941
0.137255 0.011765 0.152941
0.137255 0.011765 0.152941
0.137255 0.011765 0.152941
0.137255 0.011765 0.152941
0.137255 0.011765 0.152941
0.137255 0.011765 0.152941
0.137255 0.011765 0.152941
0.137255 0.011765 0.152941
0.137255 0.011765 0.152941
0.137255 0.011765 0.152941
0.137255 0.011765 0.152941
0.137255 0.011765 0.152941
0.137255 0.011765 0.152941
0.137255 0.011765 0.152941
0.137255 0.011765 0.152941
0.137255 0.011765 0.152941
0.137255 0.011765 0.152941
0.137255 0.011765 0.152941
0.137255 0.011765 0.152941
0.137255 0.011765 0.152941
0.137255 0.011765 0.152941
0.137255 0.011765 0.152941
0.137255 0.011765 0.152941
0.137255 0.011765 0.152941
0.137255 0.011765 0.152941
0.137255 0.011765 0.152941
0.137255 0.011765 0.152941
0.137255 0.011765 0.152941
0.137255 0.011765 0.152941
0.137255 0.011765 0.152941
0.137255 0.011765 0.152941
0.137255 0.011765 0.152941
0.137255 0.011765 0.152941
0.137255 0.011765 0.152941
0.137255 0.011765 0.152941
0.137255 0.011765 0.152941
0.137255 0.011765 0.152941
0.137255 0.011765 0.152941
0.137255 0.011765 0.152941
0.137255 0.011765 0.152941
0.137255 0.011765 0.152941
0.137255 0.011765 0.152941
0.137255 0.011765 0.152941
0.137255 0.011765 0.152941
0.137255 0.011765 0.152941
0.137255 0.011765 0.152941
0.137255 0.011765 0.152941
0.137255 0.011765 0.152941
0.137255 0.011765 0.152941
0.137255 0.011765 0.152941
0.137255 0.011765 0.152941
0.137255 0.011765 0.152941
0.137255 0.011765 0.152941
0.137255 0.011765 0.152941
0.137255 0.011765 0.152941
0.137255 0.011765 0.152941
0.137255 0.011765 0.152941
0.137255 0.011765 0.152941
0.137255 0.011765 0.152941
0.137255 0.011765 0.152941
0.137255 0.011765 0.152941
0.137255 0.011765 0.152941
0.137255 0.011765 0.152941
0.137255 0.011765 0.152941
0.137255 0.011765 0.152941
0.137255 0.011765 0.152941
0.137255 0.011765 0.152941
0.137255 0.011765 0.152941
0.137255 0.011765 0.152941
0.137255 0.011765 0.152941
0.137255 0.011765 0.152941
0.137255 0.011765 0.152941
0.137255 0.011765 0.152941
0.137255 0.011765 0.152941
0.137255 0.011765 0.152941
0.137255 0.011765 0.152941
0.137255 0.011765 0.152941
0.137255 0.011765 0.152941
0.137255 0.011765 0.152941
0.137255 0.011765 0.152941
0.137255 0.011765 0.152941
0.137255 0.011765 0.152941
0.137255 0.011765 0.152941
0.137255 0.011765 0.152941
0.137255 0.011765 0.152941
0.137255 0.011765 0.152941
0.137255 0.011765 0.152941
0.137255 0.011765 0.152941
0.137255 0.011765 0.152941
0.137255 0.011765 0.152941
0.137255 0.011765 0.152941
0.137255 0.011765 0.152941
0.137255 0.011765 0.152941
0.137255 0.011765 0.152941
0.137255 0.011765 0.152941
0.137255 0.011765 0.152941
0.137255 0.011765 0.152941
0.137255 0.011765 0.152941
0.137255 0.011765 0.152941
0.137255 0.011765 0.152941
0.137255 0.011765 0.152941
0.137255 0.011765 0.152941
0.137255 0.011765 0.152941
0.137255 0.011765 0.152941
0.137255 0.011765 0.152941
0.137255 0.011765 0.152941
0.137255 0.011765 0.152941
0.137255 0.011765 0.152941
0.137255 0.011765 0.152941
0.137255 0.011765 0.152941
0.137255 0.011765 0.152941
0.137255 0.011765 0.152941
0.137255 0.011765 0.152941
0.137255 0.011765 0.152941
0.137255 0.011765 0.152941
0.137255 0.011765 0.152941
0.137255 0.011765 0.152941
0.137255 0.011765 0.152941
0.137255 0.011765 0.152941
0.137255 0.011765 0.152941
0.137255 0.011765 0.152941
0.137255 0.011765 0.152941
0.137255 0.011765 0.152941
0.137255 0.011765 0.152941
0.137255 0.011765 0.152941
0.137255 0.011765 0.152941
0.137255 0.011765 0.152941
0.137255 0.011765 0.152941
0.137255 0.011765 0.152941
0.137255 0.011765 0.152941
0.137255 0.011765 0.152941
0.137255 0.011765 0.152941
0.137255 0.011765 0.152941
0.137255 0.011765 0.152941
0.137255 0.011765 0.152941
0.137255 0.011765 0.152941
0.137255 0.011765 0.152941
0.137255 0.011765 0.152941
0.137255 0.011765 0.152941
0.137255 0.011765 0.152941
0.137255 0.011765 0.152941
0.137255 0.011765 0.152941
0.137255 0.011765 0.152941
0.137255 0.011765 0.152941
0.137255 0.011765 0.152941
0.137255 0.011765 0.152941
0.137255 0.011765 0.152941
0.137255 0.011765 0.152941
0.137255 0.011765 0.152941
0.137255 0.011765 0.152941
0.137255 0.011765 0.152941
0.137255 0.011765 0.152941
0.137255 0.011765 0.152941
0.137255 0.011765 0.152941
0.137255 0.011765 0.152941
0.137255 0.011765 0.152941
0.137255 0.011765 0.152941
0.137255 0.011765 0.152941
0.137255 0.011765 0.152941
0.137255 0.011765 0.152941
0.137255 0.011765 0.152941
0.137255 0.011765 0.152941
0.137255 0.011765 0.152941
0.137255 0.011765 0.152941
0.137255 0.011765 0.152941
0.137255 0.011765 0.152941
0.137255 0.011765 0.152941
0.137255 0.011765 0.152941
0.137255 0.011765 0.152941
0.137255 0.011765 0.152941
0.137255 0.011765 0.152941
0.137255 0.011765 0.152941
0.137255 0.011765 0.152941
0.137255 0.011765 0.152941
0.137255 0.011765 0.152941
0.137255 0.011765 0.152941
0.137255 0.011765 0.152941
0.137255 0.011765 0.152941
0.137255 0.011765 0.152941
0.137255 0.011765 0.152941
0.137255 0.011765 0.152941
0.137255 0.011765 0.152941
0.137255 0.011765 0.152941
0.137255 0.011765 0.152941
0.137255 0.011765 0.152941
0.137255 0.011765 0.152941
0.137255 0.011765 0.152941
0.137255 0.011765 0.152941
0.137255 0.011765 0.152941
0.137255 0.011765 0.152941
0.137255 0.011765 0.152941
0.137255 0.011765 0.152941
0.137255 0.011765 0.152941
0.137255 0.011765 0.152941
0.137255 0.011765 0.152941
0.137255 0.011765 0.152941
0.137255 0.011765 0.152941
0.137255 0.011765 0.152941
0.137255 0.011765 0.152941
0.137255 0.011765 0.152941
0.137255 0.011765 0.152941
0.137255 0.011765 0.152941
0.137255 0.011765 0.152941
0.137255 0.011765 0.152941
0.137255 0.011765 0.152941
0.137255 0.011765 0.152941
0.137255 0.011765 0.152941
0.137255 0.011765 0.152941
0.137255 0.011765 0.152941
0.137255 0.011765 0.152941
0.137255 0.011765 0.152941
0.137255 0.011765 0.152941
0.137255 0.011765 0.152941
0.137255 0.011765 0.152941
0.137255 0.011765 0.152941
0.137255 0.011765 0.152941
0.137255 0.011765 0.152941
0.137255 0.011765 0.152941
0.137255 0.011765 0.152941
0.137255 0.011765 0.152941
0.137255 0.011765 0.152941
0.137255 0.011765 0.152941
0.137255 0.011765 0.152941
0.137255 0.011765 0.152941
0.137255 0.011765 0.152941
0.137255 0.011765 0.152941
0.137255 0.011765 0.152941
0.137255 0.011765 0.152941
0.137255 0.011765 0.152941
0.137255 0.011765 0.152941
